X:1
T:Title
%%score { ( 1 3 ) | ( 2 4 ) }
L:1/8
Q:1/4=100
M:3/4
K:Bb
V:1 bass nm="Grand Piano"
V:3 bass 
V:2 bass 
V:4 bass 
V:1
 [F,B,D]2 [A,CE]2 [G,_D=E]2 | [DF]>=E[K:treble] [B,DF]2 z2 | [Fd]2 [Fc]2 [FB]2 | B>A A2 z2 | %4
w: Dora~Rappard * *||||
 E2 C2 D2 | E>D E2 z2 | G2 [CF]2 [CE]2 | [CE]>D D2 z2 | D2 [CE]2 [_D=E]2 | [DF]>[_D=E] [=DF]2 z2 | %10
w: ||||||
 [FB]2 [Fc]2 [Fd]2 | d>[Ge] [Ge]2 z2 | F2 G2 F2 | A>B c2 z2 | e2 d2 c2 | c>[Fd] [Fd]2 z2 | %16
w: ||||||
 [DFB]2 [CEB]2 [B,F]2 | [B,EG]>[B,E^F] [B,EG]2 z2 | [CEc]2 [CFc]2 [CGB]2 | A4 z2 | F2 G2 F2 | %21
w: |||||
 [Ee]4 [CGc]2 | [DFB]4 [CFA]2 | [DFB]4 z2 |] %24
w: |||
V:2
 B,,2 B,,2 B,,2 | z z/ _D/ B,,2 z2 | B,2 [F,A,]2 [D,B,]2 | [F,DF]>[F,CF] [F,CF]2 z2 | %4
 [F,A,]2 [F,A,]2 [D,F,=B,]2 | G,>[F,=B,] [C,G,C]2 z2 | [C,E,C]2 [A,,F,]2 [F,,F,]2 | %7
 [B,,F,]>[B,,F,B,] [B,,F,B,]2 z2 | [B,,F,B,]2 [B,,A,]2 [B,,G,]2 | [B,,F,]2 [B,,B,]2 z2 | %10
 [D,B,]2 [C,A,]2 [B,,B,]2 | [B,_A]>[E,B,] [E,B,]2 z2 | [A,CE]2 [A,CE]2 [A,CE]2 | %13
 [F,CF]>[G,B,F] [F,A,F]2 z2 | [G,B,E]2 [F,B,F]2 [F,A,F]2 | [F,A,F]>[B,,B,] [B,,B,]2 z2 | %16
 B,,2 C,2 D,2 | E,>E, E,2 z2 | C,2 D,2 =E,2 | [F,CF]4 z2 | [A,CE]2 [F,CE]2 [F,A,]2 | [C,C]4 E,2 | %22
 F,4 F,2 | B,,4 z2 |] %24
V:3
 x6 | F,2[K:treble] z2 z2 | x6 | x6 | x6 | x6 | x6 | x6 | x6 | x6 | x6 | x6 | x6 | x6 | x6 | x6 | %16
 x6 | x6 | x6 | x6 | x6 | x6 | x6 | x6 |] %24
V:4
 x6 | B,,2 z2 z2 | x6 | x6 | x6 | C,2 z2 z2 | x6 | x6 | x6 | x6 | x6 | x6 | x6 | x6 | x6 | x6 | %16
 x6 | x6 | x6 | x6 | x6 | x6 | x6 | x6 |] %24

